X:17596
T:Tommy Peoples'
R:reel
S:Martin Hayes
Z:Devin McCabe
M:C|
L:1/8
K:G
G2BG cGBG|ADDE FGAF|G2BG cGBG|1 Addc AGGF:|2 Addc AGGf|
!|:g2dg Bgdg|~g2bg eaaf|g2dg BgdB|1cAdc BGGf:|2cAdc BGGF||
